X: 0594
T: DURANG'S HORNPIPE
B: Oliver Ditson "The Boston Collection of Instrumental Music" 1910 p.59 #4
F: http://conquest.imslp.info/files/imglnks/usimg/8/8f/IMSLP175643-PMLP309456-bostoncollection00bost_bw.pdf
M: 2/4
L: 1/16
K: D
A2 |\
DAFA DAFA | BcdB BAFA | DAFA DAFA | [AA,][eE][cC][eE] [AA,][eE][cC][eE] |\
DAFA DAFA | BcdB BAFA | fgaf bgec | d2d2d2 :|
|: A2 |\
defe dcBA | Bcdc BAGF | E2E2 edcB | Acec dBA^G |\
A^GAB cBcd | edef gfge | fgaf bgec | d2d2d2 :|

%%sep 1 1 500
%%sep 1 1 500
